X:626
T:Här är gille
R:Gånglåt
O:Skåne
M:2/4
L:1/8
K:D

|: F>E DD | F>E DD | EE AA1/2G1/2 | FE D2 :|
w:Här är gil-le, här är gil-le, här är gil-le var-en-da dag
|: A2 d>B | AA d2 | A>G FF | EE1/2E1/2 D2 :| 
w:Hej! Hopp! Se här är jag Jag är all-tid li-vad och glad


(:musicend:)

(:music:)
